flaticon/grooming/lotion-5.svg

<svg xmlns="http://www.w3.org/2000/svg" width="32" height="32" viewBox="0 0 24 24">
    <path d="M23.796875 2.441406L23.796875 0 15.660156 0 15.660156 3.660156 14.441406 3.660156 14.441406 5.503906C13.261719 5.917969 12.40625 7.035156 12.40625 8.378906L12.40625 20.949219C12.40625 22.617188 13.75 24 15.457031 24L20.746094 24C22.414062 24 23.796875 22.617188 23.757812 20.949219L23.757812 8.378906C23.757812 7.078125 22.9375 5.945312 21.761719 5.515625L21.761719 3.660156 20.542969 3.660156 20.542969 2.441406zM13.21875 17.085938L17.289062 17.085938C17.53125 17.085938 17.695312 16.921875 17.695312 16.679688 17.695312 16.433594 17.53125 16.269531 17.289062 16.269531L13.21875 16.269531 13.21875 15.050781 17.289062 15.050781C17.53125 15.050781 17.695312 14.886719 17.695312 14.644531 17.695312 14.398438 17.53125 14.238281 17.289062 14.238281L13.21875 14.238281 13.21875 13.015625 15.253906 13.015625C15.5 13.015625 15.660156 12.855469 15.660156 12.609375 15.660156 12.367188 15.5 12.203125 15.253906 12.203125L13.21875 12.203125 13.21875 10.578125 19.730469 10.578125 19.730469 18.710938 13.21875 18.710938zM22.941406 8.378906L22.941406 20.910156C22.941406 22.128906 21.964844 23.144531 20.707031 23.144531L15.457031 23.144531C14.238281 23.144531 13.21875 22.167969 13.21875 20.910156L13.21875 19.527344 20.542969 19.527344 20.542969 9.761719 13.21875 9.761719 13.21875 8.339844C13.21875 7.117188 14.195312 6.101562 15.457031 6.101562L15.457031 6.140625 20.707031 6.140625C21.925781 6.140625 22.941406 7.117188 22.941406 8.378906zM20.949219 4.472656L20.949219 5.289062 15.253906 5.289062 15.253906 4.472656zM16.472656 3.660156L16.472656.8125 22.984375.8125 22.984375 1.628906 19.730469 1.628906 19.730469 3.660156zM8.175781 17.898438L3.578125 17.898438C1.707031 17.898438.203125 19.402344.203125 21.273438L.203125 24 11.550781 24 11.550781 21.273438C11.550781 19.402344 10.046875 17.898438 8.175781 17.898438zM10.78125 23.1875L1.015625 23.1875 1.015625 21.273438C1.015625 19.851562 2.15625 18.710938 3.578125 18.710938L8.21875 18.710938C9.640625 18.710938 10.78125 19.851562 10.78125 21.273438zM10.78125 23.1875"/>
</svg>

<svg xmlns="http://www.w3.org/2000/svg" width="32" height="32" viewBox="0 0 24 24">
    <path d="M23.797 2.441V0H15.66v3.66h-1.219v1.844a3.038 3.038 0 0 0-2.035 2.875v12.57A3.047 3.047 0 0 0 15.457 24h5.29c1.667 0 3.05-1.383 3.01-3.05V8.378c0-1.3-.82-2.434-1.995-2.863V3.66h-1.219V2.441zM13.219 17.086h4.07a.385.385 0 0 0 .406-.406c0-.246-.164-.41-.406-.41h-4.07v-1.22h4.07a.385.385 0 0 0 .406-.405c0-.247-.164-.407-.406-.407h-4.07v-1.222h2.035c.246 0 .406-.16.406-.407 0-.242-.16-.406-.406-.406h-2.035v-1.625h6.511v8.133H13.22zm9.722-8.707V20.91a2.229 2.229 0 0 1-2.234 2.235h-5.25a2.232 2.232 0 0 1-2.238-2.235v-1.383h7.324V9.762h-7.324V8.34a2.23 2.23 0 0 1 2.238-2.238v.039h5.25a2.23 2.23 0 0 1 2.234 2.238zM20.95 4.473v.816h-5.695v-.816zm-4.476-.813V.812h6.511v.817H19.73V3.66zm0 0M8.176 17.898H3.578a3.366 3.366 0 0 0-3.375 3.375V24h11.348v-2.727a3.366 3.366 0 0 0-3.375-3.375zm2.605 5.29H1.016v-1.915a2.554 2.554 0 0 1 2.562-2.562h4.64a2.554 2.554 0 0 1 2.563 2.562zm0 0"/>
</svg>
